X:776
T:Planxty Irwin
C:Turlough O'Carolan
S:Sessions etc
Z:Nigel Gatherer
M:6/8
L:1/8
K:D
A | d2c  B>cd | A2G  F>ED | G2E F>GA | C2D E2
A | d2c  B>cd | A2G  F>ED | G2E F>GA | D2C D2  :|
A | d>ed d>cd | e>fe ecA  | f2f e>fd | c>dB ABc |
    d2c  B>cd | A2G  F>ED | G2E F>GA | D2C D2  :|]
<end>
<start>
